X:1
T:Swing Your Partner
C:from the recording
L:1/8
M:4/4
I:linebreak $
K:G
V:1 treble nm="Voice" snm="Voice"
V:1
 z2 z2 z2 ef | B2 B3 A | B2 B4 Bc | d2 G2 G3 G | G2 G2 F2 E2 |$ D2 d2 d3 ^c | d2 d4 FE | %7
 D2 d2 d2 ^c2 | d3 ^c d2 ef :| d2 d2 d2 f2 | g4 a4 |$ g4 f4 |: e4 c4 | G2 [Gc][Gc] [Gc]2 [Gc]2 | %14
 A3 B cBcA | G2 [Gc][Gc] [Gc]2 [Gc]2 | A4 B2 c2 |$ d4 g4 | g4 a4 | g4 =f4 :| A4 =f4 | c3 cBAB |$ %22
 c8 || %23
